X:5
T:Disused Railway, The
R:slip jig
Z:id:hn-slipjig-5
M:9/8
K:Bm
B2c dcB fBB|B2d cBA ecA|B2c dcB fBB|1 B2d cBA B2A:|2 B2d cBA B2c||
d2e fed add|d2f ecA ecA|d2e fed aee|fbb b2a b3|
a2g fed def|e2d cBA ecA|B2c dcB fBB|B2d cBA B2A||
<end>
<start>
